X: 1486
T: Andrew Carr
R: slip jig
M: 9/8
K: Dmajor
"D"d2B AFA AFA|"D"d2A "Bm"def "A7"gfe|"D"d2B AFA "A7"ABc|"D"d2D DEF "A"E2D:|
|:"D"F2A AFA AGF|"G"G2B BGB BAG|"D"F2A AFA "A7"ABc|"D"d2D DEF "A"E2D:|

